**kern	**silbe
*ICvox	*
=1	=1
*A-:	*
*M4/4	*
*clefF4	*
1r	.
=2	=2
1r	.
=3	=3
1r	.
=4	=4
1r	.
=5	=5
4.r	.
16c	Stood
16B-	there
8A-	bol-
8A-	-dly
4r	.
=6	=6
8r	.
16c	swea-
16c	-tin'
16c	in
16B-	the
16B-	sun.
16A-	_
2r	.
=7	=7
8.r	.
16c	Felt
16c	like
16B-	a
16A-	mil-
16A-	-lion.
2r	.
=8	=8
8c	Felt
8d-	like
16c	num-
16B-	-ber
16B-	one.
16A-	_
2r	.
=9	=9
8.r	.
16G-	The
16c	height
8B-	of
16B-	sum-
16A-	-mer.
8.r	.
8r	.
16r	.
16D-	I'd
=10	=10
16c	ne-
16d-	-ver
8d-	felt
8B-	that
16B-	strong.
8A-	_
16r	.
8r	.
8F	Like
8A-	a
=11	=11
8A-	rock.
8r	.
4r	.
2r	.
=12	=12
1r	.
=13	=13
4.r	.
16c	I
16B-	was
8B-	eigh-
8A-	-teen
4r	.
=14	=14
8r	.
16c	did-
16c	-'nt
16c	have
16B-	a
16B-	care.
16A-	_
2r	.
=15	=15
8.r	.
16c	Work-
16c	-in'
16B-	for
8A-	pea-
8A-	-nuts.
8r	.
4r	.
=16	=16
16c	Not
16d-	a
8c	dime
8B-	to
16B-	spare.
8.A-	_
8r	.
4r	.
=17	=17
8.r	.
16G-	but
16c	I
16B-	was
8A-	lean
16A-	and,
8.r	.
4r	.
=18	=18
16c	so-
16d-	-lid
16c	eve-
16B-	-ry-
16B-	-where,
16A-	_
8r	.
4r	.
8F	Like
8A-	a
=19	=19
8A-	rock.
8r	.
4r	.
2r	.
=20	=20
1r	.
=21	=21
8.r	.
16A-	My
8c	hands
16B-	were
16B-	stea-
16A-	-dy.
16r	.
8r	.
8.r	.
16A-	My
=22	=22
8.c	eyes
16d-	were
16c	clear
16B-	and
16B-	bright.
16A-	_
8r	.
4r	.
=23	=23
8.r	.
16A-	My
16c	walk
8B-	had
8B-	pur-
8A-	-pose.
16r	.
8.r	.
16D-	My
=24	=24
8c	steps
8d-	were
16c	quick
16B-	and
16B-	light;
16A-	_
8r	.
=25	=25
8.r	.
16G-	and
16c	I
8B-	held
8B-	firm-
16A-	-ly
8r	.
8.r	.
16D-	to
=26	=26
16c	what
8d-	I
16c	felt
8B-	was
16B-	right.
16A-	_
4r	.
8F	Like
8A-	a
=27	=27
8A-	rock.
8r	.
4r	.
2r	.
=28	=28
2r	.
4r	.
8F	Like
8A-	a
=29	=29
8A-	rock.
8r	.
4r	.
4.r	.
16c	I
16e-	was
=30	=30
8.f	strong
16e-	as
16e-	I
16c	could
16e-	be,
32c	_
32B-	_
16A-	_
16r	.
8r	.
8F	Like
8A-	a
=31	=31
8A-	rock.
8r	.
4r	.
4.r	.
16c	No-
16e-	-thin'
=32	=32
8f	e-
16e-	-ver
8e-	got
16c	to
32c	me,
32B-	_
16A-	_
4r	.
8F	Like
8A-	a
=33	=33
8A-	rock.
8r	.
4r	.
4.r	.
16D-	I
16D-	was
=34	=34
512%21B-	some-
1024%43c-	-thin'
1024%43c-	to
16B-	see,
8A-	_
16r	.
8r	.
4r	.
8F	Like
8A-	a
=35	=35
8A-	rock.
8r	.
4r	.
2r	.
=36	=36
2r	.
*clefG2	*
4.r	.
16e-	And
16f	I
=37	=37
4cc-	stood
16b-	arr-
8.a-	-ow
8a-	straight,
8r	.
8r	.
16a-	un-
[16b-	-em-
=38	=38
16b-]	_
16b-	-cum-
8a-	-bered
16a-	by
8a-	the
8.a-	weight
16f	of
8f	all
8.f	these
=39	=39
8f	hustl-
8e-	-ers
16e-	and
8e-	their
[16e-	schemes.
4e-]	_
4r	.
=40	=40
2r	.
8.r	.
8a-	I
8a-	stood
[16a-	proud.
=41	=41
4a-]	_
8a-	I
8a-	stood
32f	tall,
32e-	_
16d-	_
8r	.
4r	.
=42	=42
16a-	High
16b-	_
[8a-	_
32a-]	_
32a-	a-
16a-	-bove
16a-	it
32f	all.
32e-	_
16d-	_
16r	.
8r	.
8.r	.
16d-	I
=43	=43
4cc-	still
8b-	be-
[8b-	-lieved
1024%85b-]	_
1024%85b-	in
512%43b-	my
32g-	dreams.
32f	_
8.e-	_
=44	=44
1r	.
=45	=45
1r	.
=46	=46
1r	.
=47	=47
1r	.
=48	=48
1r	.
=49	=49
1r	.
=50	=50
1r	.
=51	=51
1r	.
=52	=52
1r	.
=53	=53
1r	.
=54	=54
1r	.
=55	=55
1r	.
=56	=56
1r	.
=57	=57
1r	.
=58	=58
1r	.
=59	=59
1r	.
=60	=60
1r	.
=61	=61
1r	.
=62	=62
1r	.
=63	=63
1r	.
=64	=64
1r	.
=65	=65
*clefF4	*
4.r	.
16B-	Twen-
16A-	-ty
8A-	years
8A-	now.
4r	.
=66	=66
8.r	.
8B-	Where'd
8c	they
8A-	go?.
16r	.
8r	.
4r	.
=67	=67
4r	.
8r	.
32B-	Twen-
32B-	-ty
32B-	years.
16.A-	_
16r	.
8r	.
4r	.
=68	=68
16r	.
8B-	I
8B-	don't
16B-	know.
16A-	_
16r	.
2r	.
=69	=69
8r	.
16r	.
16G-	I
16c	sit;
16B-	and
16B-	I
16B-	won-
16A-	-der
8A-	some-
[16A-	-times
4A-]	_
=70	=70
2r	.
4r	.
16F	where
8.A-	they've
=71	=71
4A-	gone;
4r	.
2r	.
=72	=72
1r	.
=73	=73
*clefG2	*
2r	.
16r	.
16A-	And
8e-	some-
8e-	-times
8f	late
=74	=74
16a-	at
8.a-	night,
4r	.
2r	.
=75	=75
4.r	.
4a-	Oh
16a-	when
16a-	I'm
16a-	bathed
16f	_
16B-	in
16B-	the
=76	=76
16c	fire-
16A-	_
16B-	-light:
16A-	_
4r	.
2r	.
=77	=77
8r	.
16A-	The
8g-	moon
8.g-	comes
8g-	call-
16g-	-in'
16g-	a
16g-	ghos-
16f	_
16f	-tly
16f	white;
=78	=78
2r	.
4r	.
16r	.
16F	and
16F	I
16A-	re-
=79	=79
4A-	-call.
4r	.
4r	.
16r	.
8f	I
16a-	re-
=80	=80
4a-	-call.
4r	.
4r	.
8f	Like
8a-	a
=81	=81
8a-	rock.
8r	.
4r	.
2r	.
=82	=82
8cc	Stand-
16b-	_
16b-	-in'
16b-	arr-
8a-	-ow
8.a-	straight,
8r	.
8f	Like
8a-	a
=83	=83
8a-	rock.
8r	.
4r	.
2r	.
=84	=84
8cc	Char-
16b-	_
16b-	-gin'
16b-	from
16a-	the
8a-	gate,
4r	.
8f	Like
8a-	a
=85	=85
8a-	rock.
8r	.
4r	.
2r	.
=86	=86
16cc-	Car-
16b-	-ry-
16b-	-in'
16a-	the
8a-	weight,
8r	.
4r	.
8f	Like
8a-	a
=87	=87
8a-	rock.
8r	.
4r	.
2r	.
=88	=88
2r	.
8r	.
8a-	Oh
8f	like
8a-	a
=89	=89
8a-	rock.
8r	.
4r	.
4.r	.
16r	.
16e-	The
=90	=90
16cc	sun
8b-	u-
8b-	-pon
8.a-	my
8a-	skin,
8r	.
8f	Like
8a-	a
=91	=91
8a-	rock.
8r	.
4r	.
4r	.
8.r	.
[16cc-	Hard
=92	=92
8cc-]	_
16b-	_
16b-	a-
8b-	-gainst
16a-	the
8.a-	wind,
8r	.
8f	Like
8a-	a
=93	=93
8a-	rock.
8r	.
4r	.
4r	.
16r	.
8.cc-	I
=94	=94
16cc-	see
8b-	my-
16b-	-self
16a-	a-
8.a-	-gain,
4r	.
8f	like
8a-	a
=95	=95
8a-	rock.
8r	.
4r	.
16r	.
16cc-	Oh
4b-	_
16b-	like
16a-	a
=96	=96
4a-	rock.
4r	.
2r	.
=97	=97
1r	.
=98	=98
1r	.
=99	=99
1r	.
=100	=100
1r	.
=101	=101
1r	.
=102	=102
1r	.
=103	=103
1r	.
=104	=104
4.r	.
4cc-	Oh.
8b-	_
4r	.
=105	=105
1r	.
=106	=106
1r	.
=107	=107
1r	.
=108	=108
1r	.
=109	=109
1r	.
=110	=110
1r	.
=111	=111
1r	.
=112	=112
1r	.
=113	=113
1r	.
=114	=114
1r	.
=115	=115
1r	.
=116	=116
1r	.
=117	=117
1r	.
=118	=118
1r	.
=119	=119
1r	.
=120	=120
1r	.
*-	*-
!!!ENC: Nathaniel Condit-Schultz